public/images/poses-lg/Camel.svg

<svg width="800" height="800" fill="none" xmlns="http://www.w3.org/2000/svg"><path d="m505.07 525.084 23.047-30.728s-15.365-25.607-43.532-46.093c-28.168-20.485-56.336-40.971-81.943-48.654-25.607-7.682-35.85-2.56-53.775 10.243-17.925 12.804-58.896 25.608-74.261 30.729-15.364 5.121 5.122 33.289 5.122 33.289s15.364-12.803 30.728-10.243c15.364 2.56 38.411 25.607 53.776 30.729 15.364 5.121 23.045 5.121 48.654 7.682 25.607 2.56 43.531 15.364 48.652 25.607l43.532-2.561Z" fill="#fff" stroke="#000" stroke-width="5" stroke-miterlimit="10"/><path d="m505.07 525.084 23.047-30.728s-15.365-25.607-43.532-46.093c-28.168-20.485-56.336-40.971-81.943-48.654-25.607-7.682-35.85-2.56-53.775 10.243-17.925 12.804-58.896 25.608-74.261 30.729-15.364 5.121 5.122 33.289 5.122 33.289s15.364-12.803 30.728-10.243c15.364 2.56 38.411 25.607 53.776 30.729 15.364 5.121 23.045 5.121 48.654 7.682 25.607 2.56 43.531 15.364 48.652 25.607l43.532-2.561Z" stroke="#000" stroke-width="5" stroke-miterlimit="10"/><path d="M289.435 458.046c4.746 9.043.235 17.661 1.591 28.808 2.163 17.713-19.846 34.4-39.706 32.634-26.223-2.335-24.527-96.227-9.263-97.369 9.047-.673 25.232 7.442 36.7 22.779 3.691 4.931 10.678 13.148 10.678 13.148Z" fill="#fff" stroke="#000" stroke-width="5" stroke-miterlimit="10"/><path d="M289.435 458.046c4.746 9.043.235 17.661 1.591 28.808 2.163 17.713-19.846 34.4-39.706 32.634-26.223-2.335-24.527-96.227-9.263-97.369 9.047-.673 25.232 7.442 36.7 22.779 3.691 4.931 10.678 13.148 10.678 13.148Z" stroke="#000" stroke-width="5" stroke-miterlimit="10"/><path d="M240.676 508.187c.868-16.455 13.94-45.861 34.43-39.789 23.042 6.82 14.016-7.38 12.333-11.813-1.68-4.439-12.706-13.071-10.35-14.239 2.358-1.17 31.821 13.039 34.202 36.885 2.388 23.847-7.01 34.772-19.563 41.687-12.551 6.912-32.742 7.302-44.78-.683-12.031-7.984-6.272-12.048-6.272-12.048Z" fill="#000" stroke="#000" stroke-width="5" stroke-miterlimit="10"/><path d="M489.706 507.16c12.423-8.28 38.411-12.804 38.411-12.804s15.364 33.289 28.168 81.942c12.803 48.654 15.363 84.505 10.242 120.355-5.122 35.85-10.242 74.26-28.167 84.503-17.926 10.243-61.458 10.243-81.943 10.243s-97.307-5.121-112.672-5.121c-15.365 0-64.018 5.121-76.821 5.121-12.804 0-10.243-10.243 5.121-15.364s20.486-2.56 30.729-7.682c10.242-5.121 23.046-10.243 30.728-10.243 7.683 0 15.365 7.682 25.607 7.682 10.244 0 74.261-15.364 94.747-20.486 20.486-5.121 56.335-2.56 56.335-2.56s-5.121-64.018-10.242-89.626c-5.122-25.607-17.925-33.289-28.168-58.896-10.243-25.607-2.56-33.29-5.121-48.654-2.56-15.364-2.56-12.803-5.122-17.925 0 0 12.804-10.243 28.168-20.485Z" fill="#fff" stroke="#000" stroke-width="5" stroke-miterlimit="10"/><path d="M489.706 507.16c12.423-8.28 38.411-12.804 38.411-12.804s15.364 33.289 28.168 81.942c12.803 48.654 15.363 84.505 10.242 120.355-5.122 35.85-10.242 74.26-28.167 84.503-17.926 10.243-61.458 10.243-81.943 10.243s-97.307-5.121-112.672-5.121c-15.365 0-64.018 5.121-76.821 5.121-12.804 0-10.243-10.243 5.121-15.364s20.486-2.56 30.729-7.682c10.242-5.121 23.046-10.243 30.728-10.243 7.683 0 15.365 7.682 25.607 7.682 10.244 0 74.261-15.364 94.747-20.486 20.486-5.121 56.335-2.56 56.335-2.56s-5.121-64.018-10.242-89.626c-5.122-25.607-17.925-33.289-28.168-58.896-10.243-25.607-2.56-33.29-5.121-48.654-2.56-15.364-2.56-12.803-5.122-17.925 0 0 12.804-10.243 28.168-20.485Z" stroke="#000" stroke-width="5" stroke-miterlimit="10"/><path d="M381.106 455.645s11.573 135.195 8.78 159.647c-2.796 24.452-28.746 107.766-28.746 107.766-3.646 15.731.126 28.63-9.467 46.495s-13.504 6.189-15.61 3.92c-2.106-2.26-5.944-37.805 5.837-51.354 3.881-4.462 3.881-5.346 5.057-8.15l13.386-103.393-31.126-128.739c-2.035-7.952-2.718-13.806-3.396-20.77-.573-5.887-.12-11.478.345-17.385" fill="#fff"/><path d="M381.106 455.645s11.573 135.195 8.78 159.647c-2.796 24.452-28.746 107.766-28.746 107.766-3.646 15.731.126 28.63-9.467 46.495s-13.504 6.189-15.61 3.92c-2.106-2.26-5.944-37.805 5.837-51.354 3.881-4.462 3.881-5.346 5.057-8.15l13.386-103.393-31.126-128.739c-2.035-7.952-2.718-13.806-3.396-20.77-.573-5.887-.12-11.478.345-17.385" stroke="#000" stroke-width="5" stroke-miterlimit="10"/><path d="M381.106 455.645s11.573 135.195 8.78 159.647c-2.796 24.452-28.746 107.766-28.746 107.766-3.646 15.731.126 28.63-9.467 46.495s-13.504 6.189-15.61 3.92c-2.106-2.26-5.944-37.805 5.837-51.354 3.881-4.462 3.881-5.346 5.057-8.15l13.386-103.393-31.126-128.739c-2.035-7.952-2.718-13.806-3.396-20.77-.573-5.887-.12-11.478.345-17.385" stroke="#000" stroke-width="5" stroke-miterlimit="10"/><path d="M317.18 465.748c-1.603-14.924 6.079-27.728 16.322-35.41 10.243-7.682 21.236-11.823 18.3-22.553M347.849 707.09c6.139 2.368 17.605 1.86 17.605 1.86M369.828 764.356c-3.036 4-5.167 18.608-2.822 22.827" stroke="#000" stroke-width="5" stroke-miterlimit="10"/></svg>

<svg width="800" height="800" viewBox="0 0 800 800" fill="none" xmlns="http://www.w3.org/2000/svg">
<path d="M505.07 525.084L528.117 494.356C528.117 494.356 512.752 468.749 484.585 448.263C456.417 427.778 428.249 407.292 402.642 399.609C377.035 391.927 366.792 397.049 348.867 409.852C330.942 422.656 289.971 435.46 274.606 440.581C259.242 445.702 279.728 473.87 279.728 473.87C279.728 473.87 295.092 461.067 310.456 463.627C325.82 466.187 348.867 489.234 364.232 494.356C379.596 499.477 387.277 499.477 412.886 502.038C438.493 504.598 456.417 517.402 461.538 527.645L505.07 525.084Z" fill="white" stroke="black" stroke-width="5" stroke-miterlimit="10"/>
<path d="M505.07 525.084L528.117 494.356C528.117 494.356 512.752 468.749 484.585 448.263C456.417 427.778 428.249 407.292 402.642 399.609C377.035 391.927 366.792 397.049 348.867 409.852C330.942 422.656 289.971 435.46 274.606 440.581C259.242 445.702 279.728 473.87 279.728 473.87C279.728 473.87 295.092 461.067 310.456 463.627C325.82 466.187 348.867 489.234 364.232 494.356C379.596 499.477 387.277 499.477 412.886 502.038C438.493 504.598 456.417 517.402 461.538 527.645L505.07 525.084Z" stroke="black" stroke-width="5" stroke-miterlimit="10"/>
<path d="M289.435 458.046C294.181 467.089 289.67 475.707 291.026 486.854C293.189 504.567 271.18 521.254 251.32 519.488C225.097 517.153 226.793 423.261 242.057 422.119C251.104 421.446 267.289 429.561 278.757 444.898C282.448 449.829 289.435 458.046 289.435 458.046Z" fill="white" stroke="black" stroke-width="5" stroke-miterlimit="10"/>
<path d="M289.435 458.046C294.181 467.089 289.67 475.707 291.026 486.854C293.189 504.567 271.18 521.254 251.32 519.488C225.097 517.153 226.793 423.261 242.057 422.119C251.104 421.446 267.289 429.561 278.757 444.898C282.448 449.829 289.435 458.046 289.435 458.046Z" stroke="black" stroke-width="5" stroke-miterlimit="10"/>
<path d="M240.676 508.187C241.544 491.732 254.616 462.326 275.106 468.398C298.148 475.218 289.122 461.018 287.439 456.585C285.759 452.146 274.733 443.514 277.089 442.346C279.447 441.176 308.91 455.385 311.291 479.231C313.679 503.078 304.281 514.003 291.728 520.918C279.177 527.83 258.986 528.22 246.948 520.235C234.917 512.251 240.676 508.187 240.676 508.187Z" fill="black" stroke="black" stroke-width="5" stroke-miterlimit="10"/>
<path d="M489.706 507.16C502.129 498.88 528.117 494.356 528.117 494.356C528.117 494.356 543.481 527.645 556.285 576.298C569.088 624.952 571.648 660.803 566.527 696.653C561.405 732.503 556.285 770.913 538.36 781.156C520.434 791.399 476.902 791.399 456.417 791.399C435.932 791.399 359.11 786.278 343.745 786.278C328.38 786.278 279.727 791.399 266.924 791.399C254.12 791.399 256.681 781.156 272.045 776.035C287.409 770.914 292.531 773.475 302.774 768.353C313.016 763.232 325.82 758.11 333.502 758.11C341.185 758.11 348.867 765.792 359.109 765.792C369.353 765.792 433.37 750.428 453.856 745.306C474.342 740.185 510.191 742.746 510.191 742.746C510.191 742.746 505.07 678.728 499.949 653.12C494.827 627.513 482.024 619.831 471.781 594.224C461.538 568.617 469.221 560.934 466.66 545.57C464.1 530.206 464.1 532.767 461.538 527.645C461.538 527.645 474.342 517.402 489.706 507.16Z" fill="white" stroke="black" stroke-width="5" stroke-miterlimit="10"/>
<path d="M489.706 507.16C502.129 498.88 528.117 494.356 528.117 494.356C528.117 494.356 543.481 527.645 556.285 576.298C569.088 624.952 571.648 660.803 566.527 696.653C561.405 732.503 556.285 770.913 538.36 781.156C520.434 791.399 476.902 791.399 456.417 791.399C435.932 791.399 359.11 786.278 343.745 786.278C328.38 786.278 279.727 791.399 266.924 791.399C254.12 791.399 256.681 781.156 272.045 776.035C287.409 770.914 292.531 773.475 302.774 768.353C313.016 763.232 325.82 758.11 333.502 758.11C341.185 758.11 348.867 765.792 359.109 765.792C369.353 765.792 433.37 750.428 453.856 745.306C474.342 740.185 510.191 742.746 510.191 742.746C510.191 742.746 505.07 678.728 499.949 653.12C494.827 627.513 482.024 619.831 471.781 594.224C461.538 568.617 469.221 560.934 466.66 545.57C464.1 530.206 464.1 532.767 461.538 527.645C461.538 527.645 474.342 517.402 489.706 507.16Z" stroke="black" stroke-width="5" stroke-miterlimit="10"/>
<path d="M381.106 455.645C381.106 455.645 392.679 590.84 389.886 615.292C387.09 639.744 361.14 723.058 361.14 723.058C357.494 738.789 361.266 751.688 351.673 769.553C342.08 787.418 338.169 775.742 336.063 773.473C333.957 771.213 330.119 735.668 341.9 722.119C345.781 717.657 345.781 716.773 346.957 713.969L360.343 610.576L329.217 481.837C327.182 473.885 326.499 468.031 325.821 461.067C325.248 455.18 325.701 449.589 326.166 443.682" fill="white"/>
<path d="M381.106 455.645C381.106 455.645 392.679 590.84 389.886 615.292C387.09 639.744 361.14 723.058 361.14 723.058C357.494 738.789 361.266 751.688 351.673 769.553C342.08 787.418 338.169 775.742 336.063 773.473C333.957 771.213 330.119 735.668 341.9 722.119C345.781 717.657 345.781 716.773 346.957 713.969L360.343 610.576L329.217 481.837C327.182 473.885 326.499 468.031 325.821 461.067C325.248 455.18 325.701 449.589 326.166 443.682" stroke="black" stroke-width="5" stroke-miterlimit="10"/>
<path d="M381.106 455.645C381.106 455.645 392.679 590.84 389.886 615.292C387.09 639.744 361.14 723.058 361.14 723.058C357.494 738.789 361.266 751.688 351.673 769.553C342.08 787.418 338.169 775.742 336.063 773.473C333.957 771.213 330.119 735.668 341.9 722.119C345.781 717.657 345.781 716.773 346.957 713.969L360.343 610.576L329.217 481.837C327.182 473.885 326.499 468.031 325.821 461.067C325.248 455.18 325.701 449.589 326.166 443.682" stroke="black" stroke-width="5" stroke-miterlimit="10"/>
<path d="M317.18 465.748C315.577 450.824 323.259 438.02 333.502 430.338C343.745 422.656 354.738 418.515 351.802 407.785" stroke="black" stroke-width="5" stroke-miterlimit="10"/>
<path d="M347.849 707.09C353.988 709.458 365.454 708.95 365.454 708.95" stroke="black" stroke-width="5" stroke-miterlimit="10"/>
<path d="M369.828 764.356C366.792 768.356 364.661 782.964 367.006 787.183" stroke="black" stroke-width="5" stroke-miterlimit="10"/>
</svg>
